public/assets/images/contact/icon/02.svg

<svg width="40" height="40" viewBox="0 0 40 40" fill="none" xmlns="http://www.w3.org/2000/svg">
<path d="M37.6883 13.945L25.5183 2.28667C24.045 0.813333 22.085 0 20 0C17.915 0 15.955 0.811667 14.495 2.27333L2.31167 13.945C0.841667 15.3517 0 17.3267 0 19.36V32.5C0 36.635 3.365 40 7.5 40H32.5C36.635 40 40 36.635 40 32.5V19.36C40 17.3267 39.1583 15.3517 37.6883 13.945ZM3.46333 15.1483L15.66 3.465C16.8183 2.30667 18.36 1.66667 20 1.66667C21.64 1.66667 23.18 2.305 24.3517 3.47667L36.5367 15.1483C36.6617 15.2683 36.78 15.3933 36.8933 15.5233L24.125 28.2917C21.9217 30.495 18.08 30.495 15.8767 28.2917L3.10667 15.5233C3.22 15.3933 3.33833 15.2683 3.46333 15.1483ZM38.3333 32.5C38.3333 35.7167 35.7167 38.3333 32.5 38.3333H7.5C4.28333 38.3333 1.66667 35.7167 1.66667 32.5V19.36C1.66667 18.5283 1.84833 17.7083 2.18667 16.9583L14.6983 29.47C16.115 30.8867 17.9967 31.6667 20.0017 31.6667C22.0067 31.6667 23.8883 30.8867 25.305 29.47L37.8167 16.9583C38.155 17.7083 38.3367 18.5267 38.3367 19.36V32.5H38.3333Z" fill="#0F62FE"/>
</svg>

<svg xmlns="http://www.w3.org/2000/svg" width="40" height="40" fill="none" viewBox="0 0 40 40"><path fill="#0f62fe" d="M37.688 13.945 25.518 2.287A7.76 7.76 0 0 0 20 0a7.74 7.74 0 0 0-5.505 2.273L2.312 13.945A7.53 7.53 0 0 0 0 19.36V32.5C0 36.635 3.365 40 7.5 40h25c4.135 0 7.5-3.365 7.5-7.5V19.36a7.53 7.53 0 0 0-2.312-5.415M3.463 15.148 15.66 3.465A6.1 6.1 0 0 1 20 1.667c1.64 0 3.18.638 4.352 1.81l12.185 11.671q.187.18.356.375L24.125 28.292c-2.203 2.203-6.045 2.203-8.248 0L3.107 15.523a6 6 0 0 1 .356-.375M38.333 32.5a5.84 5.84 0 0 1-5.833 5.833h-25A5.84 5.84 0 0 1 1.667 32.5V19.36c0-.832.181-1.652.52-2.402L14.698 29.47a7.45 7.45 0 0 0 5.304 2.197c2.005 0 3.886-.78 5.303-2.197l12.512-12.512c.338.75.52 1.569.52 2.402V32.5z"/></svg>
